X:1
T:Amor non si fugge
T:Amor non si fugge
T:Barbara Strozzi
T:Source : Cantate, ariete a  1,2 e 3 voci---Opera terza---Venetia---F.Magni---1654. Editor : André Vierendeels (21/07/16).
T:Notes : Original clefs : C1, F4 m 5 in S :"D" notated as"C" in original print
T:©
T:©
T:©
T:©
C:Barbara Strozzi
Z:©
%%score 1 2
L:1/8
Q:1/4=115
M:4/4
K:D
V:1 treble nm="Soprano" snm="S"
V:2 bass nm="MusicXML Part"
V:1
 DEFG A2 DA |[M:3/4] B2 c3 B/c/ | d2 A2 d2 | c2 AB cB | d2 B4 | A2 A3 A | G2 F3 E | F2 d3 d | %8
w: Ca- ra, ca- ra Fil- li quel-|la tu se- *|i, tu sei|quel- la _ ch'a- *|do- *|ro per te|so- la, per|te, per te|
w: ||||||||
 =c2 B3 A | B2 z A BA | GF F2 E2 | D6 ::[M:4/4] D3 E F2 DA | B cde c2 A2 | ef de cBBB | %15
w: so- la, per|te lan- guis- *|co è mo- *|ro.|Ben vid' i- o ch'un|guar- do'a- * * des- ca|ch'al- * let- * tan- * do il|
w: ||||S'è il lan- guir col-|po dA- * * mo- re|fug- * gi- * * * ro d'A-|
 B4- B3 c/d/ | edcB A4- | A2 Bc c2- B2 | A2 E2- EA F2- | FB ^G2- Gc A2- | Ad B2- Be c2- | %21
w: se- * * *||* no'ad- ad- hug- *|ge mà _ pur ar-|* do'el cor _ si frug-|* ge mà _ pur ar-|
w: mor _ _ _|_ _ _ _ _|* * m'as- sa- *|le mà'l _ fug- gir'|_ ohi- me _ che va-|* le ma'l _ fug- gi-|
 cf d2- dgee |[M:6/4] z2 A2 B2 c2 B2 c2 | d2 c2 d2 e2 d2 e2 | f4 z2 d4 z2 | B4 z2 c2 B2 c2 | %26
w: * do'el cor _ si frug- ge|che non fug- ge, non|fug- ge, non fug- ge d'A-|mor chi,|chi chi se- co|
w: * re'ohi- me _ che va- le,|non so sco- glie dal|piè, non si sco- glie dal|piè, lac-|cio, lac- cio del|
 d4 d2 B6 | e6 A2 G2 A2 | F4 F2 A6 | B6 z6 | z2 D2 E2 F2 E2 F2 | G2 F2 G2 A2 G2 A2 | B6 G4 z2 | %33
w: tres- ca, chi|chi, chi se- co|tres- ca, chi,|chi|che non fug- ge, non|fug- ge, non fug- ge d'A-|mor, chi|
w: co- re, no|no lac- cio del|co- re, no|no,|non si sco- glie dal|piè, non si sco- glie dal|pie lac-|
 E4 z2 F2 E2 F2 | G4 G2 A4 z2 | B4 z2 c4 z2 | d2 e2 f2 f2 e4 | d12 ||[M:4/4] DEFG A2 D z |] %39
w: chi chi se- co|tres- ca, chi|chi chi|chi se- co tres- *|ca.|Ca- ra, ca- ra Fil- li|
w: cio, lac- cio del|co- re, no|no no|lac- cio del co- *|re.||
V:2
"^BC" D,4 D,4 |[M:3/4] G,2 E,4 | D,6 | A,6 | D,2 E,4 | A,,6 | B,,2 C,4 | D,6 | E,2 F,4 | %9
 G,2 z F, G,2 | G,2 A,4 | D,6 ::[M:4/4] D,2 A,,2 D,4- | D,2 E,2 A,,4 | A,,2 B,,2 C,2 D,2 | %15
 E,F,^G,F, E,D,C,B,, | A,,4 A,G,F,E, | D,4 E,4 | A,,4 D,3 D, | B,,3 E, C,3 F, | D,3 G, E,3 A, | %21
 F,3 B, G,2 A,2 |[M:6/4] z4 z4 z4 | z2 A,,2 B,,2 C,2 B,,2 C,2 | D,2 D,2 E,2 F,2 E,2 F,2 | %25
 G,2 F,2 G,2 A,2 G,2 A,2 | B,2 A,2 B,2 G,2 F,2 G,2 | E,2 D,2 E,2 C,6 | z2 D,2 E,2 F,2 E,2 F,2 | %29
 G,2 F,2 G,2 A,2 G,2 A,2 | B,2 B,,2 C,2 D,2 C,2 D,2 | E,2 D,2 E,2 F,2 E,2 F,2 | %32
 G,2 G,,2 A,,2 B,,2 A,,2 B,,2 | C,2 B,,2 C,2 D,2 C,2 D,2 | E,2 D,2 E,2 F,2 E,2 F,2 | %35
"^UT SUPRA" G,2 F,2 G,2 A,2 G,2 A,2 | B,4 G,2 A,6 | D,12 ||[M:4/4] D,4- D,4 |] %39

